svg/u1f9c5.svg

<svg viewBox="0 0 128 128" xmlns="http://www.w3.org/2000/svg">
  <radialGradient id="SVGID_1_" cx="61.8364" cy="1.1749" gradientUnits="userSpaceOnUse" r="110.2686">
    <stop offset="0.1866" stop-color="#F2A05B"/>
    <stop offset="0.2246" stop-color="#F5AD68"/>
    <stop offset="0.2914" stop-color="#FECC88"/>
    <stop offset="0.6387" stop-color="#FECC88"/>
    <stop offset="0.6577" stop-color="#FECC88"/>
    <stop offset="0.7028" stop-color="#FCC581"/>
    <stop offset="0.7688" stop-color="#F7B16D"/>
    <stop offset="0.8138" stop-color="#F3A05C"/>
    <stop offset="0.8485" stop-color="#E6915B"/>
    <stop offset="0.9054" stop-color="#D77F59"/>
    <stop offset="0.9456" stop-color="#D17858"/>
  </radialGradient>
  <path d="M62.16,6.84c0,0-7.09-5.02-7.65-2.58s0.42,7.32-1.64,10.51c-2.06,3.19-4.88,4.69-7.13,5.44 c-2.25,0.75-26.65,9.95-33.97,34.35s3.94,45.22,21.12,55.19c14.08,8.17,23.37,6.95,23.37,6.95s-1.88,1.69-2.63,1.88 c-0.75,0.19-3.28,0.28-4.5,0.47c-1.22,0.19-5.54,1.69-5.16,2.82c0.38,1.13,4.13-0.47,5.73-0.75c1.6-0.28,4.32-0.47,4.88-0.75 c0.56-0.28,3.28-2.16,3.28-2.16s-1.03,2.82-1.97,3.85c-0.94,1.03,0.84,2.44,2.91,1.88s3.57-5.44,3.57-5.44s0.09,2.91,0.09,3.85 s-0.28,2.44,0.09,2.82c0.38,0.38,3.19,0.84,4.04,0.38s0.66-2.35,0.66-2.35s2.53,1.6,4.13,2.44c1.6,0.84,3.19,1.69,3.75,0.94 c0.56-0.75,0.09-2.25-0.47-2.63s-2.53-1.31-2.91-1.88c-0.38-0.56-1.13-2.25-1.13-2.25s2.16-1.5,3.1-1.31 c0.94,0.19,3.38,2.82,4.69,3.38c1.31,0.56,3.94,2.35,4.88,2.06c0.94-0.28,1.6-1.13,1.22-1.6s-3.47-1.97-4.22-2.72 c-0.75-0.75-3.66-3.1-3.66-3.1s14.63-2.44,24.4-11.68c11.22-10.61,22.6-33.75,11.68-56.17c-10.42-21.4-30.69-28.02-37.59-30.41 c-3.57-1.24-4.22-3.1-4.65-5.63c-0.42-2.53-0.7-9.71-2.67-10.14S62.16,6.84,62.16,6.84z" fill="url(#SVGID_1_)"/>
  <path d="M58.97,11.48c1.5,0.14,0.79-2.53,3.05-2.86c1.92-0.28,2.06,2.49,3.28,2.02 c1.22-0.47,0.79-4.03,0.99-5.96c0.19-1.88,1.5-2.21,1.5-2.21S66.86,1.44,64.89,2c-1.97,0.56-2.72,3.1-2.72,3.1s-1.88-3.28-4.5-3 c-2.43,0.26-3,1.88-3,1.88s1.88,0.09,2.44,1.5S56.96,11.29,58.97,11.48z" fill="#D17759"/>
  <radialGradient id="SVGID_2_" cx="61.131" cy="10.4503" gradientUnits="userSpaceOnUse" r="96.4928">
    <stop offset="0.4857" stop-color="#F2A05B"/>
    <stop offset="0.6159" stop-color="#EE9B5B"/>
    <stop offset="0.7685" stop-color="#E38D5A"/>
    <stop offset="0.9224" stop-color="#D17759"/>
  </radialGradient>
  <path d="M65.92,32.79c0.56,3.52,5.31,21.17,5.54,33.41c0.28,15.3-1.5,25.64-2.96,32.57 c-1.64,7.79-3.38,13.94-3.38,13.94l4.36-5.49c0,0,3.66-12.76,4.79-24.78c0.99-10.57,0.14-23.51-2.53-36.04 C69.06,33.87,67,24.9,66.53,20.63c-0.34-3.09-0.84-7.93-0.84-7.93s2.96,6.28,5.02,9.29c1.85,2.7,6.38,8.63,10.89,17.64 c5.04,10.07,8.54,23.84,7.98,35.1s-2.63,19.66-4.88,24.03c-2.25,4.36-8.45,10.56-8.45,10.56l-2.96,2.53c0,0,7.74-2.39,10.7-6.9 s8.96-13.61,8.68-31.91c-0.28-18.3-5.26-28.63-8.82-35.95c-2.84-5.83-11.9-17.88-11.9-17.88S86.19,29.46,89.66,32.6 c8.73,7.88,15.39,17.36,16.42,34.77c0.77,12.99-2.82,21.54-6.76,27.17s-11.45,13.8-11.45,13.8l11.64-9.48 c0,0,10.79-10.93,9.81-31.63s-10.84-30.31-16.89-35.9c-5.17-4.77-14.75-10.8-18.63-13.09c-3.31-1.95-4.04-3.8-4.46-5.35 s-1.27-1.5-1.27-1.5l-11.17,1.03l-1.08-0.48c0,0-5.3,8.28-10.75,12.17C41,27.02,31,33.73,24.34,43.77 c-6.75,10.18-7.56,20.93-6.66,31.72c0.94,11.26,6.19,23.7,16.19,29.89s22.38,7.88,22.38,7.88s-7.73-2.84-11.64-4.46 c-4.32-1.78-9.76-4.22-14.97-10.32c-4.42-5.17-11.66-18.16-9.43-35.19c1.6-12.2,7.03-20.81,14.08-27.31 c7.37-6.8,11.16-9.26,13-10.79c4.22-3.52,7.98-9.13,7.98-9.13s1.72-1.62,0.28,1.48c-1.23,2.65-5.58,8.67-6.41,9.85 c-3.03,4.36-7.34,8.12-12.79,22.48c-5.63,14.85-3.99,28.02-2.16,34.91c1.83,6.9,4.22,12.67,7.7,17.08 c4.19,5.32,13.8,10.79,13.8,10.79s-8-6.91-11.26-11.54c-4.04-5.73-6.13-11.96-7.88-19.43c-1.5-6.38-2.07-16.97,2.25-30.13 c3.38-10.28,5.98-13.68,9.36-18.61c3.38-4.93,5.65-7.95,8.47-12.55c1.65-2.7,3.21-7.09,3.21-7.09l0.63-0.19c0,0-0.7,5.77-1.41,8.73 s-1.45,7.6-3.28,12.53c-1.83,4.93-8.24,18.39-7.7,33.83c0.66,18.63,5.3,30.03,7.13,34.4s4.69,12.06,4.69,12.06l1.6-5.58 c0,0-7.13-14.69-9.1-26.94c-1.78-11.07-1.92-18.54-0.56-26.94c0.86-5.29,6.1-17.97,7.09-21.63c0.99-3.66,2.25-9.48,2.53-11.17 l1.48-6.22L65.92,32.79z" fill="url(#SVGID_2_)"/>
  <path d="M35.79,38.89c-2.35-0.56-4.5,1.78-6.85,5.91c-2.2,3.87-3.3,8.19-0.28,9.01 c3.1,0.84,6.1-5.26,6.95-7.79C36.45,43.49,37.56,39.31,35.79,38.89z" fill="#FEEAC4"/>
  <path d="M42.45,46.21c-2.35,6.23-2.72,11.07-0.56,11.83c2.16,0.75,5.82-6.38,6.85-9.67 c1.03-3.28,2.72-9.67,0.38-10.42C46.77,37.2,44.05,41.98,42.45,46.21z" fill="#FEEAC4"/>
  <path d="M56.16,52.5c-0.82,4.09-0.47,6.19,1.41,6.57c1.88,0.38,2.63-4.04,2.91-6.01 c0.28-1.97,1.22-6.1-0.94-6.57C57.38,46.02,56.81,49.21,56.16,52.5z" fill="#FEEAC4"/>
</svg>

<svg viewBox="0 0 128 128" xmlns="http://www.w3.org/2000/svg">
  <defs>
    <radialGradient id="SVGID_1_" cx="61.8364" cy="1.1749" gradientUnits="userSpaceOnUse" r="110.2686">
      <stop offset="0.1866" stop-color="#F2A05B"/>
      <stop offset="0.2246" stop-color="#F5AD68"/>
      <stop offset="0.2914" stop-color="#FECC88"/>
      <stop offset="0.6387" stop-color="#FECC88"/>
      <stop offset="0.6577" stop-color="#FECC88"/>
      <stop offset="0.7028" stop-color="#FCC581"/>
      <stop offset="0.7688" stop-color="#F7B16D"/>
      <stop offset="0.8138" stop-color="#F3A05C"/>
      <stop offset="0.8485" stop-color="#E6915B"/>
      <stop offset="0.9054" stop-color="#D77F59"/>
      <stop offset="0.9456" stop-color="#D17858"/>
    </radialGradient>
    <radialGradient id="SVGID_2_" cx="61.131" cy="10.4503" gradientUnits="userSpaceOnUse" r="96.4928">
      <stop offset="0.4857" stop-color="#F2A05B"/>
      <stop offset="0.6159" stop-color="#EE9B5B"/>
      <stop offset="0.7685" stop-color="#E38D5A"/>
      <stop offset="0.9224" stop-color="#D17759"/>
    </radialGradient>
  </defs>
  <path d="M62.16,6.84 C62.16,6.84 55.07,1.82 54.51,4.26 C53.95,6.7 54.93,11.58 52.87,14.77 C50.81,17.96 47.99,19.46 45.74,20.21 C43.49,20.96 19.09,30.16 11.77,54.56 C4.45,78.96 15.71,99.78 32.89,109.75 C46.97,117.92 56.26,116.7 56.26,116.7 C56.26,116.7 54.38,118.39 53.63,118.58 C52.88,118.77 50.35,118.86 49.13,119.05 C47.91,119.24 43.59,120.74 43.97,121.87 C44.35,123 48.1,121.4 49.7,121.12 C51.3,120.84 54.02,120.65 54.58,120.37 C55.14,120.09 57.86,118.21 57.86,118.21 C57.86,118.21 56.83,121.03 55.89,122.06 C54.95,123.09 56.73,124.5 58.8,123.94 C60.87,123.38 62.37,118.5 62.37,118.5 C62.37,118.5 62.46,121.41 62.46,122.35 C62.46,123.29 62.18,124.79 62.55,125.17 C62.93,125.55 65.74,126.01 66.59,125.55 C67.44,125.09 67.25,123.2 67.25,123.2 C67.25,123.2 69.78,124.8 71.38,125.64 C72.98,126.48 74.57,127.33 75.13,126.58 C75.69,125.83 75.22,124.33 74.66,123.95 C74.1,123.57 72.13,122.64 71.75,122.07 C71.37,121.51 70.62,119.82 70.62,119.82 C70.62,119.82 72.78,118.32 73.72,118.51 C74.66,118.7 77.1,121.33 78.41,121.89 C79.72,122.45 82.35,124.24 83.29,123.95 C84.23,123.67 84.89,122.82 84.51,122.35 C84.13,121.88 81.04,120.38 80.29,119.63 C79.54,118.88 76.63,116.53 76.63,116.53 C76.63,116.53 91.26,114.09 101.03,104.85 C112.25,94.24 123.63,71.1 112.71,48.68 C102.29,27.28 82.02,20.66 75.12,18.27 C71.55,17.03 70.9,15.17 70.47,12.64 C70.05,10.11 69.77,2.93 67.8,2.5 C65.83,2.07 62.16,6.84 62.16,6.84 Z" fill="url(#SVGID_1_)"/>
  <path d="M58.97,11.48 C60.47,11.62 59.76,8.95 62.02,8.62 C63.94,8.34 64.08,11.11 65.3,10.64 C66.52,10.17 66.09,6.61 66.29,4.68 C66.48,2.8 67.79,2.47 67.79,2.47 C67.79,2.47 66.86,1.44 64.89,2 C62.92,2.56 62.17,5.1 62.17,5.1 C62.17,5.1 60.29,1.82 57.67,2.1 C55.24,2.36 54.67,3.98 54.67,3.98 C54.67,3.98 56.55,4.07 57.11,5.48 C57.67,6.89 56.96,11.29 58.97,11.48 Z" fill="#D17759"/>
  <path d="M65.92,32.79 C66.48,36.31 71.23,53.96 71.46,66.2 C71.74,81.5 69.96,91.84 68.5,98.77 C66.86,106.56 65.12,112.71 65.12,112.71 L69.48,107.22 C69.48,107.22 73.14,94.46 74.27,82.44 C75.26,71.87 74.41,58.93 71.74,46.4 C69.06,33.87 67,24.9 66.53,20.63 C66.19,17.54 65.69,12.7 65.69,12.7 C65.69,12.7 68.65,18.98 70.71,21.99 C72.56,24.69 77.09,30.62 81.6,39.63 C86.64,49.7 90.14,63.47 89.58,74.73 C89.02,85.99 86.95,94.39 84.7,98.76 C82.45,103.12 76.25,109.32 76.25,109.32 L73.29,111.85 C73.29,111.85 81.03,109.46 83.99,104.95 C86.95,100.44 92.95,91.34 92.67,73.04 C92.39,54.74 87.41,44.41 83.85,37.09 C81.01,31.26 71.95,19.21 71.95,19.21 C71.95,19.21 86.19,29.46 89.66,32.6 C98.39,40.48 105.05,49.96 106.08,67.37 C106.85,80.36 103.26,88.91 99.32,94.54 C95.38,100.17 87.87,108.34 87.87,108.34 L99.51,98.86 C99.51,98.86 110.3,87.93 109.32,67.23 C108.34,46.53 98.48,36.92 92.43,31.33 C87.26,26.56 77.68,20.53 73.8,18.24 C70.49,16.29 69.76,14.44 69.34,12.89 C68.92,11.34 68.07,11.39 68.07,11.39 L56.9,12.42 L55.82,11.94 C55.82,11.94 50.52,20.22 45.07,24.11 C41,27.02 31,33.73 24.34,43.77 C17.59,53.95 16.78,64.7 17.68,75.49 C18.62,86.75 23.87,99.19 33.87,105.38 C43.87,111.57 56.25,113.26 56.25,113.26 C56.25,113.26 48.52,110.42 44.61,108.8 C40.29,107.02 34.85,104.58 29.64,98.48 C25.22,93.31 17.98,80.32 20.21,63.29 C21.81,51.09 27.24,42.48 34.29,35.98 C41.66,29.18 45.45,26.72 47.29,25.19 C51.51,21.67 55.27,16.06 55.27,16.06 C55.27,16.06 56.99,14.44 55.55,17.54 C54.32,20.19 49.97,26.21 49.14,27.39 C46.11,31.75 41.8,35.51 36.35,49.87 C30.72,64.72 32.36,77.89 34.19,84.78 C36.02,91.68 38.41,97.45 41.89,101.86 C46.08,107.18 55.69,112.65 55.69,112.65 C55.69,112.65 47.69,105.74 44.43,101.11 C40.39,95.38 38.3,89.15 36.55,81.68 C35.05,75.3 34.48,64.71 38.8,51.55 C42.18,41.27 44.78,37.87 48.16,32.94 C51.54,28.01 53.81,24.99 56.63,20.39 C58.28,17.69 59.84,13.3 59.84,13.3 L60.47,13.11 C60.47,13.11 59.77,18.88 59.06,21.84 C58.35,24.8 57.61,29.44 55.78,34.37 C53.95,39.3 47.54,52.76 48.08,68.2 C48.74,86.83 53.38,98.23 55.21,102.6 C57.04,106.97 59.9,114.66 59.9,114.66 L61.5,109.08 C61.5,109.08 54.37,94.39 52.4,82.14 C50.62,71.07 50.48,63.6 51.84,55.2 C52.7,49.91 57.94,37.23 58.93,33.57 C59.92,29.91 61.18,24.09 61.46,22.4 L62.94,16.18 L65.92,32.79 Z" fill="url(#SVGID_2_)"/>
  <path d="M35.79,38.89 C33.44,38.33 31.29,40.67 28.94,44.8 C26.74,48.67 25.64,52.99 28.66,53.81 C31.76,54.65 34.76,48.55 35.61,46.02 C36.45,43.49 37.56,39.31 35.79,38.89 Z" fill="#FEEAC4"/>
  <path d="M42.45,46.21 C40.1,52.44 39.73,57.28 41.89,58.04 C44.05,58.79 47.71,51.66 48.74,48.37 C49.77,45.09 51.46,38.7 49.12,37.95 C46.77,37.2 44.05,41.98 42.45,46.21 Z" fill="#FEEAC4"/>
  <path d="M56.16,52.5 C55.34,56.59 55.69,58.69 57.57,59.07 C59.45,59.45 60.2,55.03 60.48,53.06 C60.76,51.09 61.7,46.96 59.54,46.49 C57.38,46.02 56.81,49.21 56.16,52.5 Z" fill="#FEEAC4"/>
</svg>
